X: 101
T:Maid Peeped Out At The Window
M:6/8
L:1/8
S:Playford
N:1 a, 2 b's
K:G
D| G2 G G>AB| A2 G E3| B2 B c>de | d2 B G2 D| G2 G G>AB A2 G E3| B2 B c>de d2 B G2:|
|:G |B2 c d>ed| c2 B A2 G =F2 E F2 G| A>G=F E3| D2 D G2 G |=F> EF E2 E| D2 G =F>GA G3 G3:|

